images/sponsors/Opendoor.svg

<?xml version="1.0" encoding="UTF-8" standalone="no"?>
<svg width="100px" height="85px" viewBox="0 0 100 85" version="1.1" xmlns="http://www.w3.org/2000/svg" xmlns:xlink="http://www.w3.org/1999/xlink" xmlns:sketch="http://www.bohemiancoding.com/sketch/ns">
    <!-- Generator: Sketch 3.4.2 (15855) - http://www.bohemiancoding.com/sketch -->
    <title>Artboard 1</title>
    <desc>Created with Sketch.</desc>
    <defs></defs>
    <g id="Page-1" stroke="none" stroke-width="1" fill="none" fill-rule="evenodd" sketch:type="MSPage">
        <g id="Artboard-1" sketch:type="MSArtboardGroup" fill="#191919">
            <path d="M8.73275862,48.0864686 C7.09482759,48.0864686 5.70258621,47.5973597 4.63793103,46.5376238 C3.49137931,45.4778878 3,44.1735974 3,42.6247525 L3,42.5432343 C3,40.9943894 3.49137931,39.690099 4.63793103,38.630363 C5.70258621,37.5706271 7.09482759,37 8.73275862,37 C10.3706897,37 11.762931,37.5706271 12.8275862,38.630363 C13.8922414,39.690099 14.4655172,40.9943894 14.4655172,42.5432343 L14.4655172,42.5432343 C14.4655172,44.0920792 13.8922414,45.3963696 12.8275862,46.5376238 C11.6810345,47.5973597 10.3706897,48.0864686 8.73275862,48.0864686 L8.73275862,48.0864686 L8.73275862,48.0864686 Z M8.73275862,45.9669967 C9.63362069,45.9669967 10.4525862,45.6409241 11.0258621,44.9887789 C11.6810345,44.3366337 11.9267241,43.5214521 11.9267241,42.6247525 L11.9267241,42.5432343 C11.9267241,41.6465347 11.6810345,40.8313531 11.0258621,40.1792079 C10.4525862,39.5270627 9.63362069,39.2009901 8.73275862,39.2009901 C7.75,39.2009901 7.01293103,39.5270627 6.35775862,40.1792079 C5.78448276,40.8313531 5.45689655,41.5650165 5.45689655,42.5432343 L5.45689655,42.5432343 C5.45689655,43.5214521 5.78448276,44.3366337 6.35775862,44.9887789 C7.01293103,45.6409241 7.75,45.9669967 8.73275862,45.9669967 L8.73275862,45.9669967 L8.73275862,45.9669967 Z M16.5948276,47.9234323 L16.5948276,37.2445545 L20.9353448,37.2445545 C22.2456897,37.2445545 23.2284483,37.5706271 23.9655172,38.2227723 C24.7025862,38.8749175 25.112069,39.7716172 25.112069,40.9128713 L25.112069,40.9128713 C25.112069,42.1356436 24.7025862,43.0323432 23.8836207,43.7660066 C23.0646552,44.4181518 22,44.7442244 20.6896552,44.7442244 L18.887931,44.7442244 L18.887931,47.9234323 L16.5948276,47.9234323 L16.5948276,47.9234323 Z M18.887931,42.6247525 L20.7715517,42.6247525 C21.3448276,42.6247525 21.8362069,42.4617162 22.1637931,42.1356436 C22.4913793,41.8910891 22.6551724,41.4834983 22.6551724,40.9943894 L22.6551724,40.9943894 C22.6551724,40.4237624 22.4913793,40.0161716 22.1637931,39.7716172 C21.8362069,39.4455446 21.3448276,39.3640264 20.7715517,39.3640264 L18.887931,39.3640264 L18.887931,42.6247525 L18.887931,42.6247525 Z M26.8318966,47.9234323 L26.8318966,37.2445545 L34.9396552,37.2445545 L34.9396552,39.2825083 L29.2068966,39.2825083 L29.2068966,41.4834983 L34.2844828,41.4834983 L34.2844828,43.6029703 L29.2068966,43.6029703 L29.2068966,45.8039604 L35.0215517,45.8039604 L35.0215517,47.9234323 L26.8318966,47.9234323 L26.8318966,47.9234323 Z M37.1508621,47.9234323 L37.1508621,37.2445545 L39.362069,37.2445545 L44.4396552,43.8475248 L44.4396552,37.2445545 L46.7327586,37.2445545 L46.7327586,47.9234323 L44.7672414,47.9234323 L39.5258621,41.0759076 L39.5258621,47.9234323 L37.1508621,47.9234323 L37.1508621,47.9234323 Z M49.3534483,47.9234323 L49.3534483,37.2445545 L53.5301724,37.2445545 C55.25,37.2445545 56.5603448,37.7336634 57.625,38.7118812 C58.7715517,39.7716172 59.262931,40.9943894 59.262931,42.5432343 L59.262931,42.5432343 C59.262931,44.0920792 58.7715517,45.3963696 57.625,46.3745875 C56.5603448,47.4343234 55.25,47.9234323 53.5301724,47.9234323 L49.3534483,47.9234323 L49.3534483,47.9234323 Z M51.7284483,45.8039604 L53.5301724,45.8039604 C54.512931,45.8039604 55.25,45.4778878 55.9051724,44.9072607 C56.4784483,44.3366337 56.8060345,43.5214521 56.8060345,42.6247525 L56.8060345,42.5432343 C56.8060345,41.6465347 56.4784483,40.8313531 55.9051724,40.2607261 C55.25,39.6085809 54.512931,39.3640264 53.5301724,39.3640264 L51.7284483,39.3640264 L51.7284483,45.8039604 L51.7284483,45.8039604 Z M66.6336207,48.0864686 C64.9956897,48.0864686 63.6034483,47.5973597 62.5387931,46.5376238 C61.4741379,45.4778878 60.9008621,44.1735974 60.9008621,42.6247525 L60.9008621,42.5432343 C60.9008621,40.9943894 61.4741379,39.690099 62.5387931,38.630363 C63.6034483,37.5706271 64.9956897,37 66.6336207,37 C68.2715517,37 69.6637931,37.5706271 70.7284483,38.630363 C71.7931034,39.690099 72.3663793,40.9943894 72.3663793,42.5432343 L72.3663793,42.5432343 C72.3663793,44.0920792 71.7931034,45.3963696 70.7284483,46.5376238 C69.6637931,47.5973597 68.2715517,48.0864686 66.6336207,48.0864686 L66.6336207,48.0864686 L66.6336207,48.0864686 Z M66.6336207,45.9669967 C67.6163793,45.9669967 68.3534483,45.6409241 69.0086207,44.9887789 C69.5818966,44.3366337 69.9094828,43.5214521 69.9094828,42.6247525 L69.9094828,42.5432343 C69.9094828,41.6465347 69.5818966,40.8313531 68.9267241,40.1792079 C68.3534483,39.5270627 67.5344828,39.2009901 66.6336207,39.2009901 C65.6508621,39.2009901 64.9137931,39.5270627 64.2586207,40.1792079 C63.6853448,40.8313531 63.3577586,41.5650165 63.3577586,42.5432343 L63.3577586,42.5432343 C63.3577586,43.5214521 63.6853448,44.3366337 64.3405172,44.9887789 C64.9137931,45.6409241 65.7327586,45.9669967 66.6336207,45.9669967 L66.6336207,45.9669967 L66.6336207,45.9669967 Z M79.737069,48.0864686 C78.0991379,48.0864686 76.7068966,47.5973597 75.6422414,46.5376238 C74.5775862,45.4778878 74.0043103,44.1735974 74.0043103,42.6247525 L74.0043103,42.5432343 C74.0043103,40.9943894 74.5775862,39.690099 75.6422414,38.630363 C76.7068966,37.5706271 78.0991379,37 79.737069,37 C81.375,37 82.7672414,37.5706271 83.8318966,38.630363 C84.8965517,39.690099 85.4698276,40.9943894 85.4698276,42.5432343 L85.4698276,42.5432343 C85.4698276,44.0920792 84.8965517,45.3963696 83.8318966,46.5376238 C82.6853448,47.5973597 81.375,48.0864686 79.737069,48.0864686 L79.737069,48.0864686 L79.737069,48.0864686 Z M79.737069,45.9669967 C80.7198276,45.9669967 81.4568966,45.6409241 82.0301724,44.9887789 C82.6853448,44.3366337 83.012931,43.5214521 83.012931,42.6247525 L83.012931,42.5432343 C83.012931,41.6465347 82.6853448,40.8313531 82.0301724,40.1792079 C81.4568966,39.5270627 80.637931,39.2009901 79.737069,39.2009901 C78.7543103,39.2009901 78.0172414,39.5270627 77.362069,40.1792079 C76.7887931,40.8313531 76.4612069,41.5650165 76.4612069,42.5432343 L76.4612069,42.5432343 C76.4612069,43.5214521 76.7887931,44.3366337 77.4439655,44.9887789 C78.0172414,45.6409241 78.8362069,45.9669967 79.737069,45.9669967 L79.737069,45.9669967 L79.737069,45.9669967 Z M87.5991379,47.9234323 L87.5991379,37.2445545 L92.512931,37.2445545 C93.9051724,37.2445545 94.887931,37.5706271 95.625,38.3042904 C96.2801724,38.8749175 96.5258621,39.690099 96.5258621,40.749835 L96.5258621,40.749835 C96.5258621,42.4617162 95.7887931,43.5214521 94.2327586,44.0920792 L96.8534483,47.9234323 L94.1508621,47.9234323 L91.7758621,44.49967 L91.7758621,44.49967 L89.9741379,44.49967 L89.9741379,47.9234323 L87.5991379,47.9234323 L87.5991379,47.9234323 Z M89.9741379,42.380198 L92.3491379,42.380198 C92.9224138,42.380198 93.3318966,42.2986799 93.6594828,41.9726073 C93.987069,41.7280528 94.1508621,41.320462 94.1508621,40.9128713 L94.1508621,40.8313531 C94.1508621,40.3422442 93.987069,40.0161716 93.6594828,39.690099 C93.3318966,39.4455446 92.9224138,39.3640264 92.2672414,39.3640264 L89.9741379,39.3640264 L89.9741379,42.380198 L89.9741379,42.380198 Z" id="Shape" sketch:type="MSShapeGroup"></path>
        </g>
    </g>
</svg>

<svg width="100" height="85" viewBox="0 0 100 85" xmlns="http://www.w3.org/2000/svg"><title>Artboard 1</title><path d="M8.733 48.086c-1.638 0-3.03-.489-4.095-1.548C3.49 45.478 3 44.174 3 42.625v-.082c0-1.549.491-2.853 1.638-3.913C5.703 37.57 7.095 37 8.733 37s3.03.57 4.095 1.63c1.064 1.06 1.638 2.364 1.638 3.913 0 1.55-.574 2.853-1.638 3.995-1.147 1.06-2.457 1.548-4.095 1.548zm0-2.119c.9 0 1.72-.326 2.293-.978.655-.652.9-1.468.9-2.364v-.082c0-.896-.245-1.712-.9-2.364-.573-.652-1.392-.978-2.293-.978-.983 0-1.72.326-2.375.978-.574.652-.901 1.386-.901 2.364s.327 1.794.9 2.446c.656.652 1.393.978 2.376.978zm7.862 1.956V37.245h4.34c1.31 0 2.293.326 3.03.978.738.652 1.147 1.549 1.147 2.69 0 1.223-.41 2.12-1.228 2.853-.82.652-1.884.978-3.194.978h-1.802v3.18h-2.293zm2.293-5.298h1.884c.573 0 1.064-.163 1.392-.49.327-.244.491-.652.491-1.14 0-.571-.164-.979-.491-1.223-.328-.326-.82-.408-1.392-.408h-1.884v3.26zm7.944 5.298V37.245h8.108v2.038h-5.733v2.2h5.077v2.12h-5.077v2.201h5.815v2.12h-8.19zm10.319 0V37.245h2.211l5.078 6.603v-6.603h2.293v10.678h-1.966l-5.241-6.847v6.847H37.15zm12.202 0V37.245h4.177c1.72 0 3.03.489 4.095 1.467 1.147 1.06 1.638 2.282 1.638 3.831 0 1.55-.491 2.853-1.638 3.832-1.065 1.06-2.375 1.548-4.095 1.548h-4.177zm2.375-2.119h1.802c.983 0 1.72-.326 2.375-.897.573-.57.901-1.386.901-2.282v-.082c0-.896-.328-1.712-.9-2.282-.656-.652-1.393-.897-2.376-.897h-1.802v6.44zm14.906 2.282c-1.638 0-3.03-.489-4.095-1.548-1.065-1.06-1.638-2.364-1.638-3.913v-.082c0-1.549.573-2.853 1.638-3.913 1.064-1.06 2.457-1.63 4.095-1.63s3.03.57 4.094 1.63c1.065 1.06 1.638 2.364 1.638 3.913 0 1.55-.573 2.853-1.638 3.995-1.064 1.06-2.456 1.548-4.094 1.548zm0-2.119c.982 0 1.72-.326 2.375-.978.573-.652.9-1.468.9-2.364v-.082c0-.896-.327-1.712-.982-2.364-.574-.652-1.393-.978-2.293-.978-.983 0-1.72.326-2.375.978-.574.652-.901 1.386-.901 2.364s.327 1.794.983 2.446c.573.652 1.392.978 2.293.978zm13.103 2.12c-1.638 0-3.03-.49-4.095-1.55-1.064-1.06-1.638-2.363-1.638-3.912v-.082c0-1.549.574-2.853 1.638-3.913C76.707 37.57 78.1 37 79.737 37s3.03.57 4.095 1.63 1.638 2.364 1.638 3.913c0 1.55-.573 2.853-1.638 3.995-1.147 1.06-2.457 1.548-4.095 1.548zm0-2.12c.983 0 1.72-.326 2.293-.978a3.257 3.257 0 0 0 .983-2.364v-.082c0-.896-.328-1.712-.983-2.364-.573-.652-1.392-.978-2.293-.978-.983 0-1.72.326-2.375.978-.573.652-.9 1.386-.9 2.364s.327 1.794.982 2.446c.573.652 1.392.978 2.293.978zm7.862 1.956V37.245h4.914c1.392 0 2.375.326 3.112 1.06.655.57.9 1.385.9 2.445 0 1.712-.736 2.771-2.292 3.342l2.62 3.831h-2.702L91.776 44.5h-1.802v3.423H87.6zm2.375-5.543h2.375c.573 0 .983-.081 1.31-.407.328-.245.492-.653.492-1.06v-.082c0-.489-.164-.815-.492-1.14-.327-.245-.737-.327-1.392-.327h-2.293v3.016z" fill="#191919" fill-rule="evenodd"/></svg>
